.local/share/icons/Gruvbox-Plus-Dark/mimetypes/scalable/application-x-gzip.svg

<svg width="256" height="256" viewBox="0 0 256 256" fill="none" xmlns="http://www.w3.org/2000/svg">
<g clip-path="url(#clip0)">
<g opacity="0.4" filter="url(#filter0_f)">
<path fill-rule="evenodd" clip-rule="evenodd" d="M102.816 18.4131H58.497H58.4969C49.5865 18.4131 42.4131 25.5865 42.4131 34.497V227.503C42.4131 236.413 49.5865 243.587 58.4969 243.587H58.5858H203.252H203.34C212.251 243.587 219.424 236.413 219.424 227.503L219.424 227.459L219.424 34.497C219.424 25.5865 212.251 18.4131 203.34 18.4131H159.021H102.816Z" fill="#282828"/>
</g>
<path fill-rule="evenodd" clip-rule="evenodd" d="M102.816 17.8495H58.497H58.4969C49.5865 17.8495 42.4131 25.0229 42.4131 33.9333V226.939C42.4131 235.85 49.5865 243.023 58.4969 243.023H58.5858H203.252H203.34C212.251 243.023 219.424 235.85 219.424 226.939L219.424 226.895L219.424 33.9333C219.424 25.0229 212.251 17.8495 203.34 17.8495H159.021H102.816Z" fill="url(#paint0_linear)"/>
<path opacity="0.4" d="M102.816 17.8495H58.497C49.5866 17.8495 42.4131 25.0229 42.4131 33.9333V79.5H219.424V33.9333C219.424 25.0229 212.251 17.8495 203.34 17.8495H159.021H102.816Z" fill="#ebdbb2"/>
<path d="M130.919 110.127H126.552V241.113H130.919V110.127Z" fill="#928374"/>
<path d="M135.285 241.113H130.919V110.127H135.285V241.113Z" fill="#ebdbb2"/>
<path d="M122.186 116.677V125.409H130.919V121.043H139.651V116.677H130.919H122.186ZM130.919 125.409V129.775H122.186V138.508H130.919V134.141H139.651V125.409H130.919ZM130.919 138.508V142.874H122.186V151.606H130.919V147.24H139.651V138.508H130.919ZM130.919 151.606V155.972H122.186V164.705H130.919V160.339H139.651V155.972V151.606H130.919ZM130.919 164.705V169.071H122.186V177.803H130.919V173.437H139.651V164.705H130.919ZM130.919 177.803V182.17H122.186V190.902H130.919V186.536H139.651V177.803H130.919ZM130.919 190.902V195.268H122.186V204.001H130.919V199.634H139.651V195.268V190.902H130.919ZM130.919 204.001V208.367H122.186V217.099H130.919V212.733H139.651V204.001H130.919ZM130.919 217.099V221.465H122.186V230.198H130.919V225.832H139.651V217.099H130.919ZM130.919 230.198V234.564H122.186V243.296H130.919V238.93H139.651V234.564V230.198H130.919Z" fill="url(#paint1_linear)"/>
<path opacity="0.4" d="M130.919 118.86V121.043H139.651V118.86H130.919ZM122.186 123.226V125.409H130.919V123.226H122.186ZM130.919 131.958V134.141H139.651V131.958H130.919ZM122.186 136.325V138.508H130.919V136.325H122.186ZM130.919 145.057V147.24H139.651V145.057H130.919ZM122.186 149.423V151.606H130.919V149.423H122.186ZM130.919 158.156V160.339H139.651V158.156H130.919ZM122.186 162.522V164.705H130.919V162.522H122.186ZM130.919 171.254V173.437H139.651V171.254H130.919ZM122.186 175.62V177.803H130.919V175.62H122.186ZM130.919 184.353V186.536H139.651V184.353H130.919ZM122.186 188.719V190.902H130.919V188.719H122.186ZM130.919 197.451V199.634H139.651V197.451H130.919ZM122.186 201.817V204.001H130.919V201.817H122.186ZM130.919 210.55V212.733H139.651V210.55H130.919ZM122.186 214.916V217.099H130.919V214.916H122.186ZM130.919 223.648V225.832H139.651V223.648H130.919ZM122.186 228.015V230.198H130.919V228.015H122.186ZM130.919 236.747V238.93H139.651V236.747H130.919ZM122.186 241.113V243.296H130.919V241.113H122.186Z" fill="#282828"/>
<path opacity="0.1" d="M122.186 97.0288C117.349 97.0288 113.454 100.923 113.454 105.761V127.592C113.454 132.43 117.349 136.325 122.186 136.325V153.789C122.186 156.208 124.134 158.156 126.552 158.156H135.285C137.704 158.156 139.651 156.208 139.651 153.789V136.325C144.489 136.325 148.383 132.43 148.383 127.592V105.761C148.383 100.923 144.489 97.0288 139.651 97.0288H122.186ZM126.552 145.057H135.285V153.789H126.552V145.057Z" fill="#282828"/>
<path d="M126.552 110.127C124.134 110.127 122.186 112.075 122.186 114.494V149.423C122.186 151.842 124.134 153.789 126.552 153.789H135.285C137.704 153.789 139.651 151.842 139.651 149.423V114.494C139.651 112.075 137.704 110.127 135.285 110.127H126.552ZM126.552 140.691H135.285V149.423H126.552V140.691Z" fill="url(#paint2_linear)"/>
<path d="M139.651 92.6626H122.186C117.363 92.6626 113.454 96.5722 113.454 101.395V123.226C113.454 128.049 117.363 131.958 122.186 131.958H139.651C144.474 131.958 148.383 128.049 148.383 123.226V101.395C148.383 96.5722 144.474 92.6626 139.651 92.6626Z" fill="#3c3836"/>
<path d="M139.651 88.2964H122.186C117.363 88.2964 113.454 92.206 113.454 97.0288V118.86C113.454 123.683 117.363 127.592 122.186 127.592H139.651C144.474 127.592 148.383 123.683 148.383 118.86V97.0288C148.383 92.206 144.474 88.2964 139.651 88.2964Z" fill="#665c54"/>
<path d="M126.552 101.395C124.134 101.395 122.186 103.342 122.186 105.761V145.057C122.186 147.476 124.134 149.423 126.552 149.423H135.285C137.704 149.423 139.651 147.476 139.651 145.057V105.761C139.651 103.342 137.704 101.395 135.285 101.395H126.552ZM126.552 136.325H135.285V145.057H126.552V136.325Z" fill="#ebdbb2"/>
<path d="M135.285 110.127C135.285 112.539 133.33 114.494 130.919 114.494C128.507 114.494 126.552 112.539 126.552 110.127V97.0288C126.552 94.6174 128.507 92.6626 130.919 92.6626C133.33 92.6626 135.285 94.6174 135.285 97.0288V110.127Z" fill="#665c54"/>
<path d="M135.285 105.761C135.285 108.173 133.33 110.127 130.919 110.127C128.507 110.127 126.552 108.173 126.552 105.761V97.0288C126.552 94.6174 128.507 92.6626 130.919 92.6626C133.33 92.6626 135.285 94.6174 135.285 97.0288V105.761Z" fill="#a89984"/>
<path d="M94.76 62.48C92.3333 62.48 90.2667 61.7733 88.56 60.36C86.8533 58.92 85.6133 57.1467 84.84 55.04C84.0933 52.9067 83.72 50.56 83.72 48C83.72 45.5733 84.1067 43.2933 84.88 41.16C85.68 39 86.9333 37.1867 88.64 35.72C90.3733 34.2533 92.4133 33.52 94.76 33.52C96.92 33.52 98.6533 34.0267 99.96 35.04C101.293 36.0533 102.44 37.4267 103.4 39.16L99.2 41.56C97.9467 39.2133 96.4667 38.04 94.76 38.04C93.3467 38.04 92.16 38.5867 91.2 39.68C90.2667 40.7467 89.6133 42 89.24 43.44C88.8667 44.8533 88.68 46.3733 88.68 48C88.68 50.7467 89.2 53.0933 90.24 55.04C91.28 56.9867 92.7867 57.96 94.76 57.96C96.2 57.96 97.2933 57.48 98.04 56.52C98.8133 55.56 99.2 54.3067 99.2 52.76V52.16H94.32V47.68H104.08V51.56C104.08 55 103.213 57.68 101.48 59.6C99.7467 61.52 97.5067 62.48 94.76 62.48ZM128.448 34V37.6L115.688 57.48H128.408V62H109.528V58.4L122.208 38.48H110.408V34H128.448ZM151.857 38.2H145.977V57.8H151.857V62H135.377V57.8H141.217V38.2H135.377V34H151.857V38.2ZM158.985 62V34H168.865C172.092 34 174.452 34.84 175.945 36.52C177.465 38.2 178.225 40.2533 178.225 42.68C178.225 44.9733 177.439 47 175.865 48.76C174.292 50.4933 171.959 51.36 168.865 51.36H163.745V62H158.985ZM163.745 46.88H169.105C170.545 46.88 171.612 46.4667 172.305 45.64C173.025 44.8133 173.385 43.8267 173.385 42.68C173.385 41.5867 173.039 40.6133 172.345 39.76C171.679 38.9067 170.599 38.48 169.105 38.48H163.745V46.88Z" fill="url(#paint3_linear)"/>
<path d="M55.3326 175.174H107.332V207.176H55.3326V175.174Z" fill="#ebdbb2"/>
<path d="M59.3351 183.176V199.175H67.3326V183.176H59.3351ZM71.3351 183.176V199.175H75.3339V183.176H71.3351ZM79.3327 183.176V199.175H87.334V183.176H79.3327ZM91.3327 183.176V199.175H95.3353V183.176H91.3327ZM99.334 183.176V199.175H103.333V183.176H99.334Z" fill="#665c54"/>
<path opacity="0.3" d="M151.333 179.177V183.176H199.333V179.177H151.333ZM151.333 187.174V191.177H191.336V187.174H151.333ZM151.333 195.176V199.175H199.333V195.176H151.333ZM151.333 203.177V207.176H183.334V203.177H151.333Z" fill="#ebdbb2"/>
</g>
<defs>
<filter id="filter0_f" x="27.2909" y="3.29092" width="207.255" height="255.418" filterUnits="userSpaceOnUse" color-interpolation-filters="sRGB">
<feFlood flood-opacity="0" result="BackgroundImageFix"/>
<feBlend mode="normal" in="SourceGraphic" in2="BackgroundImageFix" result="shape"/>
<feGaussianBlur stdDeviation="7.5611" result="effect1_foregroundBlur"/>
</filter>
<linearGradient id="paint0_linear" x1="131" y1="79" x2="131.204" y2="218.5" gradientUnits="userSpaceOnUse">
<stop stop-color="#8ec07c"/>
<stop offset="1" stop-color="#458588"/>
</linearGradient>
<linearGradient id="paint1_linear" x1="145.297" y1="215.473" x2="122.186" y2="149.423" gradientUnits="userSpaceOnUse">
<stop stop-color="#ebdbb2"/>
<stop offset="1" stop-color="#ebdbb2"/>
</linearGradient>
<linearGradient id="paint2_linear" x1="122.186" y1="131.958" x2="139.651" y2="131.958" gradientUnits="userSpaceOnUse">
<stop stop-color="#a89984"/>
<stop offset="0.083333" stop-color="#ebdbb2"/>
<stop offset="0.16667" stop-color="#a89984"/>
<stop offset="0.83333" stop-color="#a89984"/>
<stop offset="0.91667" stop-color="#ebdbb2"/>
<stop offset="1" stop-color="#a89984"/>
</linearGradient>
<linearGradient id="paint3_linear" x1="131.5" y1="85" x2="131.5" y2="23" gradientUnits="userSpaceOnUse">
<stop stop-color="#427b58"/>
<stop offset="1" stop-color="#427b58"/>
</linearGradient>
<clipPath id="clip0">
<rect width="256" height="256" fill="#ebdbb2"/>
</clipPath>
</defs>
</svg>

<svg width="256" height="256" fill="none" version="1.1" viewBox="0 0 256 256" xmlns="http://www.w3.org/2000/svg">
  <path d="m102.8 17.85h-44.32c-8.91 0-16.08 7.173-16.08 16.08v193c0 8.911 7.173 16.08 16.08 16.08h144.8c8.911 0 16.08-7.173 16.08-16.08v-0.044-193c0-8.91-7.173-16.08-16.08-16.08h-100.5z" clip-rule="evenodd" fill="url(#paint0_linear)" fill-rule="evenodd"/>
  <path d="m102.8 17.85h-44.32c-8.91 0-16.08 7.173-16.08 16.08v45.57h177v-45.57c0-8.91-7.173-16.08-16.08-16.08h-100.5z" fill="#ebdbb2" opacity=".4"/>
  <path d="m130.9 110.1h-4.367v131h4.367v-131z" fill="#928374"/>
  <path d="m135.3 241.1h-4.366v-131h4.366v131z" fill="#ebdbb2"/>
  <path d="m122.2 116.7v8.732h8.733v-4.366h8.732v-4.366h-17.46zm8.733 8.732v4.366h-8.733v8.733h8.733v-4.367h8.732v-8.732h-8.732zm0 13.1v4.366h-8.733v8.732h8.733v-4.366h8.732v-8.732h-8.732zm0 13.1v4.366h-8.733v8.733h8.733v-4.366h8.732v-8.733h-8.732zm0 13.1v4.366h-8.733v8.732h8.733v-4.366h8.732v-8.732h-8.732zm0 13.1v4.367h-8.733v8.732h8.733v-4.366h8.732v-8.733h-8.732zm0 13.1v4.366h-8.733v8.733h8.733v-4.367h8.732v-8.732h-8.732zm0 13.1v4.366h-8.733v8.732h8.733v-4.366h8.732v-8.732h-8.732zm0 13.1v4.366h-8.733v8.733h8.733v-4.366h8.732v-8.733h-8.732zm0 13.1v4.366h-8.733v8.732h8.733v-4.366h8.732v-8.732h-8.732z" fill="url(#paint1_linear)"/>
  <path d="m130.9 118.9v2.183h8.732v-2.183h-8.732zm-8.733 4.366v2.183h8.733v-2.183h-8.733zm8.733 8.732v2.183h8.732v-2.183h-8.732zm-8.733 4.367v2.183h8.733v-2.183h-8.733zm8.733 8.732v2.183h8.732v-2.183h-8.732zm-8.733 4.366v2.183h8.733v-2.183h-8.733zm8.733 8.733v2.183h8.732v-2.183h-8.732zm-8.733 4.366v2.183h8.733v-2.183h-8.733zm8.733 8.732v2.183h8.732v-2.183h-8.732zm-8.733 4.366v2.183h8.733v-2.183h-8.733zm8.733 8.733v2.183h8.732v-2.183h-8.732zm-8.733 4.366v2.183h8.733v-2.183h-8.733zm8.733 8.732v2.183h8.732v-2.183h-8.732zm-8.733 4.366v2.184h8.733v-2.184h-8.733zm8.733 8.733v2.183h8.732v-2.183h-8.732zm-8.733 4.366v2.183h8.733v-2.183h-8.733zm8.733 8.732v2.184h8.732v-2.184h-8.732zm-8.733 4.367v2.183h8.733v-2.183h-8.733zm8.733 8.732v2.183h8.732v-2.183h-8.732zm-8.733 4.366v2.183h8.733v-2.183h-8.733z" fill="#282828" opacity=".4"/>
  <path d="m122.2 97.03c-4.837 0-8.732 3.894-8.732 8.732v21.83c0 4.838 3.895 8.733 8.732 8.733v17.46c0 2.419 1.948 4.367 4.366 4.367h8.733c2.419 0 4.366-1.948 4.366-4.367v-17.46c4.838 0 8.732-3.895 8.732-8.733v-21.83c0-4.838-3.894-8.732-8.732-8.732h-17.46zm4.366 48.03h8.733v8.732h-8.733v-8.732z" fill="#282828" opacity=".1"/>
  <path d="m126.6 110.1c-2.418 0-4.366 1.948-4.366 4.367v34.93c0 2.419 1.948 4.366 4.366 4.366h8.733c2.419 0 4.366-1.947 4.366-4.366v-34.93c0-2.419-1.947-4.367-4.366-4.367h-8.733zm0 30.56h8.733v8.732h-8.733v-8.732z" fill="url(#paint2_linear)"/>
  <path d="m139.7 92.66h-17.46c-4.823 0-8.732 3.91-8.732 8.732v21.83c0 4.823 3.909 8.732 8.732 8.732h17.46c4.823 0 8.732-3.909 8.732-8.732v-21.83c0-4.823-3.909-8.732-8.732-8.732z" fill="#3c3836"/>
  <path d="m139.7 88.3h-17.46c-4.823 0-8.732 3.91-8.732 8.732v21.83c0 4.823 3.909 8.732 8.732 8.732h17.46c4.823 0 8.732-3.909 8.732-8.732v-21.83c0-4.823-3.909-8.732-8.732-8.732z" fill="#665c54"/>
  <path d="m126.6 101.4c-2.418 0-4.366 1.947-4.366 4.366v39.3c0 2.419 1.948 4.366 4.366 4.366h8.733c2.419 0 4.366-1.947 4.366-4.366v-39.3c0-2.419-1.947-4.366-4.366-4.366h-8.733zm0 34.93h8.733v8.732h-8.733v-8.732z" fill="#ebdbb2"/>
  <path d="m135.3 110.1c0 2.412-1.955 4.367-4.366 4.367-2.412 0-4.367-1.955-4.367-4.367v-13.1c0-2.411 1.955-4.366 4.367-4.366 2.411 0 4.366 1.955 4.366 4.366v13.1z" fill="#665c54"/>
  <path d="m135.3 105.8c0 2.412-1.955 4.366-4.366 4.366-2.412 0-4.367-1.954-4.367-4.366v-8.732c0-2.411 1.955-4.366 4.367-4.366 2.411 0 4.366 1.955 4.366 4.366v8.732z" fill="#a89984"/>
  <path d="m94.76 62.48c-2.427 0-4.493-0.7067-6.2-2.12-1.707-1.44-2.947-3.213-3.72-5.32-0.7467-2.133-1.12-4.48-1.12-7.04 0-2.427 0.3867-4.707 1.16-6.84 0.8-2.16 2.053-3.973 3.76-5.44 1.733-1.467 3.773-2.2 6.12-2.2 2.16 0 3.893 0.5067 5.2 1.52 1.333 1.013 2.48 2.387 3.44 4.12l-4.2 2.4c-1.253-2.347-2.733-3.52-4.44-3.52-1.413 0-2.6 0.5467-3.56 1.64-0.9333 1.067-1.587 2.32-1.96 3.76-0.3733 1.413-0.56 2.933-0.56 4.56 0 2.747 0.52 5.093 1.56 7.04s2.547 2.92 4.52 2.92c1.44 0 2.533-0.48 3.28-1.44 0.7733-0.96 1.16-2.213 1.16-3.76v-0.6h-4.88v-4.48h9.76v3.88c0 3.44-0.867 6.12-2.6 8.04-1.733 1.92-3.973 2.88-6.72 2.88zm33.69-28.48v3.6l-12.76 19.88h12.72v4.52h-18.88v-3.6l12.68-19.92h-11.8v-4.48h18.04zm23.41 4.2h-5.88v19.6h5.88v4.2h-16.48v-4.2h5.84v-19.6h-5.84v-4.2h16.48v4.2zm7.128 23.8v-28h9.88c3.227 0 5.587 0.84 7.08 2.52 1.52 1.68 2.28 3.733 2.28 6.16 0 2.293-0.786 4.32-2.36 6.08-1.573 1.733-3.906 2.6-7 2.6h-5.12v10.64h-4.76zm4.76-15.12h5.36c1.44 0 2.507-0.4133 3.2-1.24 0.72-0.8267 1.08-1.813 1.08-2.96 0-1.093-0.346-2.067-1.04-2.92-0.666-0.8533-1.746-1.28-3.24-1.28h-5.36v8.4z" fill="url(#paint3_linear)"/>
  <path d="m55.33 175.2h52v32h-52v-32z" fill="#ebdbb2"/>
  <path d="m59.34 183.2v16h7.998v-16h-7.998zm12 0v16h3.999v-16h-3.999zm7.998 0v16h8.001v-16h-8.001zm12 0v16h4.003v-16h-4.003zm8.001 0v16h3.999v-16h-3.999z" fill="#665c54"/>
  <path d="m151.3 179.2v3.999h48v-3.999h-48zm0 7.997v4.003h40v-4.003h-40zm0 8.002v3.999h48v-3.999h-48zm0 8.001v3.999h32v-3.999h-32z" fill="#ebdbb2" opacity=".3"/>
  <defs>
    <linearGradient id="paint0_linear" x1="131" x2="131.2" y1="79" y2="218.5" gradientUnits="userSpaceOnUse">
      <stop stop-color="#8ec07c" offset="0"/>
      <stop stop-color="#458588" offset="1"/>
    </linearGradient>
    <linearGradient id="paint1_linear" x1="145.3" x2="122.2" y1="215.5" y2="149.4" gradientUnits="userSpaceOnUse">
      <stop stop-color="#ebdbb2" offset="0"/>
      <stop stop-color="#ebdbb2" offset="1"/>
    </linearGradient>
    <linearGradient id="paint2_linear" x1="122.2" x2="139.7" y1="132" y2="132" gradientUnits="userSpaceOnUse">
      <stop stop-color="#a89984" offset="0"/>
      <stop stop-color="#ebdbb2" offset=".08333"/>
      <stop stop-color="#a89984" offset=".1667"/>
      <stop stop-color="#a89984" offset=".8333"/>
      <stop stop-color="#ebdbb2" offset=".9167"/>
      <stop stop-color="#a89984" offset="1"/>
    </linearGradient>
    <linearGradient id="paint3_linear" x1="131.5" x2="131.5" y1="85" y2="23" gradientUnits="userSpaceOnUse">
      <stop stop-color="#427b58" offset="0"/>
      <stop stop-color="#427b58" offset="1"/>
    </linearGradient>
  </defs>
</svg>
